Newaita/actions/22/format-line-spacing-normal.svg

<svg height="22" viewBox="0 0 22 22" width="22" xmlns="http://www.w3.org/2000/svg"><g fill="#424242"><path d="m2.273438 6.539062h3.640624c.25 0 .453126.203126.453126.453126 0 .253906-.203126.457031-.453126.457031h-3.640624c-.25 0-.453126-.203125-.453126-.457031 0-.25.203126-.453126.453126-.453126zm0 0"/><path d="m2.222656 6.539062h.105469c.222656 0 .402344.203126.402344.453126v8.1875c0 .25-.179688.457031-.402344.457031h-.105469c-.222656 0-.402344-.207031-.402344-.457031v-8.1875c0-.25.179688-.453126.402344-.453126zm0 0"/><path d="m2.273438 14.726562h3.640624c.25 0 .453126.203126.453126.453126s-.203126.457031-.453126.457031h-3.640624c-.25 0-.453126-.207031-.453126-.457031s.203126-.453126.453126-.453126zm0 0"/><path d="m6.820312 3.808594c-.753906 0-1.363281.609375-1.363281 1.367187v3.636719c0 .757812.609375 1.363281 1.363281 1.363281h11.828126c.753906 0 1.363281-.605469 1.363281-1.363281v-3.636719c0-.757812-.609375-1.367187-1.363281-1.367187zm.910157 1.820312h10.007812c.25 0 .453125.203125.453125.457032v1.816406c0 .253906-.203125.457031-.453125.457031h-10.007812c-.25 0-.453125-.203125-.453125-.457031v-1.816406c0-.253907.203125-.457032.453125-.457032zm0 0"/><path d="m6.820312 11.996094c-.753906 0-1.363281.609375-1.363281 1.363281v3.640625c0 .753906.609375 1.363281 1.363281 1.363281h11.828126c.753906 0 1.363281-.609375 1.363281-1.363281v-3.640625c0-.753906-.609375-1.363281-1.363281-1.363281zm.910157 1.820312h10.007812c.25 0 .453125.203125.453125.453125v1.820313c0 .25-.203125.453125-.453125.453125h-10.007812c-.25 0-.453125-.203125-.453125-.453125v-1.820313c0-.25.203125-.453125.453125-.453125zm0 0"/><path d="m2.273438 10.175781h.910156c.25 0 .453125.207031.453125.457031v.910157c0 .25-.203125.453125-.453125.453125h-.910156c-.25 0-.453126-.203125-.453126-.453125v-.910157c0-.25.203126-.457031.453126-.457031zm0 0"/></g></svg>

<?xml version="1.0" encoding="UTF-8"?>
<svg xmlns="http://www.w3.org/2000/svg" xmlns:xlink="http://www.w3.org/1999/xlink" width="22px" height="22px" viewBox="0 0 22 22" version="1.1">
<g id="surface1">
<path style=" stroke:none;fill-rule:nonzero;fill:rgb(25.882354%,25.882354%,25.882354%);fill-opacity:1;" d="M 2.273438 6.539062 L 5.914062 6.539062 C 6.164062 6.539062 6.367188 6.742188 6.367188 6.992188 C 6.367188 7.246094 6.164062 7.449219 5.914062 7.449219 L 2.273438 7.449219 C 2.023438 7.449219 1.820312 7.246094 1.820312 6.992188 C 1.820312 6.742188 2.023438 6.539062 2.273438 6.539062 Z M 2.273438 6.539062 "/>
<path style=" stroke:none;fill-rule:nonzero;fill:rgb(25.882354%,25.882354%,25.882354%);fill-opacity:1;" d="M 2.222656 6.539062 L 2.328125 6.539062 C 2.550781 6.539062 2.730469 6.742188 2.730469 6.992188 L 2.730469 15.179688 C 2.730469 15.429688 2.550781 15.636719 2.328125 15.636719 L 2.222656 15.636719 C 2 15.636719 1.820312 15.429688 1.820312 15.179688 L 1.820312 6.992188 C 1.820312 6.742188 2 6.539062 2.222656 6.539062 Z M 2.222656 6.539062 "/>
<path style=" stroke:none;fill-rule:nonzero;fill:rgb(25.882354%,25.882354%,25.882354%);fill-opacity:1;" d="M 2.273438 14.726562 L 5.914062 14.726562 C 6.164062 14.726562 6.367188 14.929688 6.367188 15.179688 C 6.367188 15.429688 6.164062 15.636719 5.914062 15.636719 L 2.273438 15.636719 C 2.023438 15.636719 1.820312 15.429688 1.820312 15.179688 C 1.820312 14.929688 2.023438 14.726562 2.273438 14.726562 Z M 2.273438 14.726562 "/>
<path style=" stroke:none;fill-rule:nonzero;fill:rgb(25.882354%,25.882354%,25.882354%);fill-opacity:1;" d="M 6.820312 3.808594 C 6.066406 3.808594 5.457031 4.417969 5.457031 5.175781 L 5.457031 8.8125 C 5.457031 9.570312 6.066406 10.175781 6.820312 10.175781 L 18.648438 10.175781 C 19.402344 10.175781 20.011719 9.570312 20.011719 8.8125 L 20.011719 5.175781 C 20.011719 4.417969 19.402344 3.808594 18.648438 3.808594 Z M 7.730469 5.628906 L 17.738281 5.628906 C 17.988281 5.628906 18.191406 5.832031 18.191406 6.085938 L 18.191406 7.902344 C 18.191406 8.15625 17.988281 8.359375 17.738281 8.359375 L 7.730469 8.359375 C 7.480469 8.359375 7.277344 8.15625 7.277344 7.902344 L 7.277344 6.085938 C 7.277344 5.832031 7.480469 5.628906 7.730469 5.628906 Z M 7.730469 5.628906 "/>
<path style=" stroke:none;fill-rule:nonzero;fill:rgb(25.882354%,25.882354%,25.882354%);fill-opacity:1;" d="M 6.820312 11.996094 C 6.066406 11.996094 5.457031 12.605469 5.457031 13.359375 L 5.457031 17 C 5.457031 17.753906 6.066406 18.363281 6.820312 18.363281 L 18.648438 18.363281 C 19.402344 18.363281 20.011719 17.753906 20.011719 17 L 20.011719 13.359375 C 20.011719 12.605469 19.402344 11.996094 18.648438 11.996094 Z M 7.730469 13.816406 L 17.738281 13.816406 C 17.988281 13.816406 18.191406 14.019531 18.191406 14.269531 L 18.191406 16.089844 C 18.191406 16.339844 17.988281 16.542969 17.738281 16.542969 L 7.730469 16.542969 C 7.480469 16.542969 7.277344 16.339844 7.277344 16.089844 L 7.277344 14.269531 C 7.277344 14.019531 7.480469 13.816406 7.730469 13.816406 Z M 7.730469 13.816406 "/>
<path style=" stroke:none;fill-rule:nonzero;fill:rgb(25.882354%,25.882354%,25.882354%);fill-opacity:1;" d="M 2.273438 10.175781 L 3.183594 10.175781 C 3.433594 10.175781 3.636719 10.382812 3.636719 10.632812 L 3.636719 11.542969 C 3.636719 11.792969 3.433594 11.996094 3.183594 11.996094 L 2.273438 11.996094 C 2.023438 11.996094 1.820312 11.792969 1.820312 11.542969 L 1.820312 10.632812 C 1.820312 10.382812 2.023438 10.175781 2.273438 10.175781 Z M 2.273438 10.175781 "/>
</g>
</svg>
